Newaita-dark/apps/48/stage.svg

<svg height="48" viewBox="0 0 48 48" width="48" xmlns="http://www.w3.org/2000/svg" xmlns:xlink="http://www.w3.org/1999/xlink"><linearGradient id="a" gradientUnits="userSpaceOnUse" x1="23.81478" x2="23.81478" y1="42.0509045" y2="44.03547050005"><stop offset="0" stop-opacity=".27451"/><stop offset="1" stop-opacity="0"/></linearGradient><linearGradient id="b"><stop offset="0" stop-opacity=".313726"/><stop offset=".222222" stop-opacity=".27451"/><stop offset="1" stop-opacity="0"/></linearGradient><radialGradient id="c" cx="450.908936" cy="189.579361" gradientTransform="matrix(.00000026 -.117199 -.210958 -.00000015 79.684395 95.392999)" gradientUnits="userSpaceOnUse" r="21.166656" xlink:href="#b"/><radialGradient id="d" cx="450.908936" cy="189.579361" gradientTransform="matrix(-.00000026 .117199 .210958 .00000015 -31.80678 -11.291218)" gradientUnits="userSpaceOnUse" r="21.166656" xlink:href="#b"/><radialGradient id="e" cx="450.908936" cy="189.579361" gradientTransform="matrix(-.00000026 -.117199 .210958 -.00000015 -31.80678 95.392999)" gradientUnits="userSpaceOnUse" r="21.166656" xlink:href="#b"/><radialGradient id="f" cx="450.908936" cy="189.579361" gradientTransform="matrix(.00000026 .117199 -.210958 .00000015 79.684393 -11.291219)" gradientUnits="userSpaceOnUse" r="21.166656" xlink:href="#b"/><linearGradient id="g" gradientUnits="userSpaceOnUse" x1="23.814786" x2="23.814786" y1="4.4681920001" y2="42.1749355"><stop offset="0" stop-color="#eee"/><stop offset="1" stop-color="#e0e0e0"/></linearGradient><linearGradient id="h" gradientUnits="userSpaceOnUse" x1="24.8070710001" x2="24.8070710001" y1="32.12807315636" y2="10.2978525001"><stop offset="0" stop-color="#ef5350"/><stop offset="1" stop-color="#e57373"/></linearGradient><linearGradient id="i" gradientUnits="userSpaceOnUse" x1="34.7298887499" x2="34.72989165643" y1="32.1280729999" y2="10.29785234364"><stop offset="0" stop-color="#66bb6a"/><stop offset="1" stop-color="#81c784"/></linearGradient><linearGradient id="j" gradientUnits="userSpaceOnUse" x1="11.9073967499" x2="11.90739965643" y1="32.1280659999" y2="10.29785246932"><stop offset="0" stop-color="#26a69a"/><stop offset="1" stop-color="#4db6ac"/></linearGradient><linearGradient id="k" gradientUnits="userSpaceOnUse" x1="19.8456557499" x2="19.84566156296" y1="32.1280729999" y2="10.2978545001"><stop offset="0" stop-color="#ffa726"/><stop offset="1" stop-color="#ffb74d"/></linearGradient><path d="m7.691406 42.050781h32.496094v1.984375h-32.496094zm0 0" fill="url(#a)"/><path d="m40.1875 42.050781h3.96875v-1.984375h-3.96875zm0 0" fill="url(#c)"/><path d="m7.691406 42.050781h-3.96875v1.984375h3.96875zm0 0" fill="url(#d)"/><path d="m7.691406 42.050781h-3.96875v-1.984375h3.96875zm0 0" fill="url(#e)"/><path d="m40.1875 42.050781h3.96875v1.984375h-3.96875zm0 0" fill="url(#f)"/><path d="m5.457031 4.46875h36.714844c.820313 0 1.488281.664062 1.488281 1.488281v34.730469c0 .820312-.667968 1.488281-1.488281 1.488281h-36.714844c-.820312 0-1.488281-.667969-1.488281-1.488281v-34.730469c0-.824219.667969-1.488281 1.488281-1.488281zm0 0" fill="url(#g)"/><path d="m5.457031 42.175781c-.824219 0-1.488281-.664062-1.488281-1.488281v-.621094c0 .824219.664062 1.488282 1.488281 1.488282h36.714844c.824219 0 1.488281-.664063 1.488281-1.488282v.621094c0 .824219-.664062 1.488281-1.488281 1.488281zm0 0" fill-opacity=".235294"/><path d="m5.457031 4.46875c-.824219 0-1.488281.664062-1.488281 1.488281v.621094c0-.824219.664062-1.488281 1.488281-1.488281h36.714844c.824219 0 1.488281.664062 1.488281 1.488281v-.621094c0-.824219-.664062-1.488281-1.488281-1.488281zm0 0" fill="#fff"/><path d="m5.457031 4.203125c-.898437 0-1.628906.730469-1.628906 1.628906v34.730469c0 .898438.730469 1.628906 1.628906 1.628906h36.714844c.898437 0 1.628906-.730468 1.628906-1.628906v-34.730469c0-.898437-.730469-1.628906-1.628906-1.628906zm0 .28125h36.714844c.75 0 1.347656.597656 1.347656 1.347656v34.730469c0 .75-.597656 1.347656-1.347656 1.347656h-36.714844c-.75 0-1.347656-.597656-1.347656-1.347656v-34.730469c0-.75.597656-1.347656 1.347656-1.347656zm0 0" fill="#212121"/><path d="m25.800781 26.175781h3.96875c.546875 0 .992188.441407.992188.992188v3.96875c0 .546875-.445313.992187-.992188.992187h-3.96875c-.550781 0-.992187-.445312-.992187-.992187v-3.96875c0-.550781.441406-.992188.992187-.992188zm0 0" fill="url(#h)"/><path d="m33.738281 13.273438h3.96875c.546875 0 .992188.445312.992188.992187v16.871094c0 .546875-.445313.992187-.992188.992187h-3.96875c-.546875 0-.992187-.445312-.992187-.992187v-16.871094c0-.546875.445312-.992187.992187-.992187zm0 0" fill="url(#i)"/><path d="m9.921875 10.296875h3.96875c.550781 0 .992187.445313.992187.992187v19.847657c0 .546875-.441406.992187-.992187.992187h-3.96875c-.546875 0-.992187-.445312-.992187-.992187v-19.847657c0-.546874.445312-.992187.992187-.992187zm0 0" fill="url(#j)"/><path d="m17.859375 20.21875h3.972656c.546875 0 .992188.445312.992188.996094v9.921875c0 .546875-.445313.992187-.992188.992187h-3.972656c-.546875 0-.992187-.445312-.992187-.992187v-9.921875c0-.550782.445312-.996094.992187-.996094zm0 0" fill="url(#k)"/><path d="m9.921875 10.296875c-.546875 0-.992187.445313-.992187.992187v.496094c0-.546875.445312-.992187.992187-.992187h3.96875c.550781 0 .992187.445312.992187.992187v-.496094c0-.546874-.441406-.992187-.992187-.992187zm23.816406 2.976563c-.550781 0-.992187.445312-.992187.992187v.496094c0-.546875.441406-.992188.992187-.992188h3.96875c.550781 0 .992188.445313.992188.992188v-.496094c0-.546875-.441407-.992187-.992188-.992187zm-15.878906 6.945312c-.546875 0-.992187.445312-.992187.996094v.496094c0-.550782.445312-.992188.992187-.992188h3.972656c.546875 0 .992188.441406.992188.992188v-.496094c0-.550782-.445313-.996094-.992188-.996094zm7.941406 5.957031c-.550781 0-.992187.441407-.992187.992188v.496093c0-.550781.441406-.992187.992187-.992187h3.96875c.546875 0 .992188.441406.992188.992187v-.496093c0-.550781-.445313-.992188-.992188-.992188zm0 0" fill="#fff" fill-opacity=".392157"/><path d="m8.929688 31.136719v.992187c0 .550782.445312.992188.992187.992188h3.96875c.550781 0 .992187-.441406.992187-.992188v-.992187c0 .546875-.441406.992187-.992187.992187h-3.96875c-.546875 0-.992187-.445312-.992187-.992187zm7.9375 0v.992187c0 .550782.445312.992188.992187.992188h3.972656c.546875 0 .992188-.441406.992188-.992188v-.992187c0 .546875-.445313.992187-.992188.992187h-3.972656c-.546875 0-.992187-.445312-.992187-.992187zm7.941406 0v.992187c0 .550782.441406.992188.992187.992188h3.96875c.546875 0 .992188-.441406.992188-.992188v-.992187c0 .546875-.445313.992187-.992188.992187h-3.96875c-.550781 0-.992187-.445312-.992187-.992187zm7.9375 0v.992187c0 .550782.441406.992188.992187.992188h3.96875c.550781 0 .992188-.441406.992188-.992188v-.992187c0 .546875-.441407.992187-.992188.992187h-3.96875c-.550781 0-.992187-.445312-.992187-.992187zm0 0" fill-opacity=".235294"/><g fill="none" stroke="#212121" stroke-linejoin="round" stroke-width="3" transform="matrix(.093759 0 0 .093759 0 20.158175)"><path d="m275.182055 64.181673h42.329291c5.832776 0 10.582323 4.707884 10.582323 10.582323v42.329291c0 5.832776-4.749547 10.582322-10.582323 10.582322h-42.329291c-5.874439 0-10.582323-4.749546-10.582323-10.582322v-42.329291c0-5.874439 4.707884-10.582323 10.582323-10.582323zm0 0"/><path d="m359.840637-73.430186h42.329291c5.832776 0 10.582323 4.749547 10.582323 10.582323v179.94115c0 5.832776-4.749547 10.582322-10.582323 10.582322h-42.329291c-5.832776 0-10.582323-4.749546-10.582323-10.582322v-179.94115c0-5.832776 4.749547-10.582323 10.582323-10.582323zm0 0"/><path d="m105.823228-105.177154h42.329291c5.874439 0 10.582323 4.749546 10.582323 10.582323v211.688118c0 5.832776-4.707884 10.582322-10.582323 10.582322h-42.329291c-5.832777 0-10.582323-4.749546-10.582323-10.582322v-211.688118c0-5.832777 4.749546-10.582323 10.582323-10.582323zm0 0"/><path d="m190.48181.646073h42.370954c5.832776 0 10.582322 4.749547 10.582322 10.623986v105.823228c0 5.832776-4.749546 10.582322-10.582322 10.582322h-42.370954c-5.832776 0-10.582323-4.749546-10.582323-10.582322v-105.823228c0-5.874439 4.749547-10.623986 10.582323-10.623986zm0 0"/></g></svg>

<?xml version="1.0" encoding="UTF-8"?>
<svg xmlns="http://www.w3.org/2000/svg" xmlns:xlink="http://www.w3.org/1999/xlink" width="48px" height="48px" viewBox="0 0 48 48" version="1.1">
<defs>
<linearGradient id="linear0" gradientUnits="userSpaceOnUse" x1="254" y1="233.5" x2="254" y2="254.666672" gradientTransform="matrix(0.093759,0,0,0.093759,-0.00000572259,20.158178)">
<stop offset="0" style="stop-color:rgb(0%,0%,0%);stop-opacity:0.27451;"/>
<stop offset="1" style="stop-color:rgb(0%,0%,0%);stop-opacity:0;"/>
</linearGradient>
<radialGradient id="radial0" gradientUnits="userSpaceOnUse" cx="450.908936" cy="189.579361" fx="450.908936" fy="189.579361" r="21.166656" gradientTransform="matrix(0.000000261256,-0.117199,-0.210958,-0.000000152308,79.684395,95.392999)">
<stop offset="0" style="stop-color:rgb(0%,0%,0%);stop-opacity:0.313726;"/>
<stop offset="0.222222" style="stop-color:rgb(0%,0%,0%);stop-opacity:0.27451;"/>
<stop offset="1" style="stop-color:rgb(0%,0%,0%);stop-opacity:0;"/>
</radialGradient>
<radialGradient id="radial1" gradientUnits="userSpaceOnUse" cx="450.908936" cy="189.579361" fx="450.908936" fy="189.579361" r="21.166656" gradientTransform="matrix(-0.000000261256,0.117199,0.210958,0.000000152308,-31.80678,-11.291218)">
<stop offset="0" style="stop-color:rgb(0%,0%,0%);stop-opacity:0.313726;"/>
<stop offset="0.222222" style="stop-color:rgb(0%,0%,0%);stop-opacity:0.27451;"/>
<stop offset="1" style="stop-color:rgb(0%,0%,0%);stop-opacity:0;"/>
</radialGradient>
<radialGradient id="radial2" gradientUnits="userSpaceOnUse" cx="450.908936" cy="189.579361" fx="450.908936" fy="189.579361" r="21.166656" gradientTransform="matrix(-0.000000261256,-0.117199,0.210958,-0.000000152308,-31.80678,95.392999)">
<stop offset="0" style="stop-color:rgb(0%,0%,0%);stop-opacity:0.313726;"/>
<stop offset="0.222222" style="stop-color:rgb(0%,0%,0%);stop-opacity:0.27451;"/>
<stop offset="1" style="stop-color:rgb(0%,0%,0%);stop-opacity:0;"/>
</radialGradient>
<radialGradient id="radial3" gradientUnits="userSpaceOnUse" cx="450.908936" cy="189.579361" fx="450.908936" fy="189.579361" r="21.166656" gradientTransform="matrix(0.000000261256,0.117199,-0.210958,0.000000152308,79.684393,-11.291219)">
<stop offset="0" style="stop-color:rgb(0%,0%,0%);stop-opacity:0.313726;"/>
<stop offset="0.222222" style="stop-color:rgb(0%,0%,0%);stop-opacity:0.27451;"/>
<stop offset="1" style="stop-color:rgb(0%,0%,0%);stop-opacity:0;"/>
</radialGradient>
<linearGradient id="linear1" gradientUnits="userSpaceOnUse" x1="254" y1="-168.666656" x2="254" y2="233.5" gradientTransform="matrix(0.093759,0,0,0.093759,0,20.282209)">
<stop offset="0" style="stop-color:rgb(93.333334%,93.333334%,93.333334%);stop-opacity:1;"/>
<stop offset="1" style="stop-color:rgb(87.843138%,87.843138%,87.843138%);stop-opacity:1;"/>
</linearGradient>
<linearGradient id="linear2" gradientUnits="userSpaceOnUse" x1="296.333344" y1="127.666679" x2="296.333344" y2="-105.166656" gradientTransform="matrix(0.093759,0,0,0.093759,-2.976847,20.158173)">
<stop offset="0" style="stop-color:rgb(93.725491%,32.549021%,31.37255%);stop-opacity:1;"/>
<stop offset="1" style="stop-color:rgb(89.803922%,45.09804%,45.09804%);stop-opacity:1;"/>
</linearGradient>
<linearGradient id="linear3" gradientUnits="userSpaceOnUse" x1="306.916656" y1="127.666656" x2="306.916687" y2="-105.166679" gradientTransform="matrix(0.093759,0,0,0.093759,5.95369,20.158175)">
<stop offset="0" style="stop-color:rgb(40.000001%,73.333335%,41.568628%);stop-opacity:1;"/>
<stop offset="1" style="stop-color:rgb(50.588238%,78.039217%,51.764709%);stop-opacity:1;"/>
</linearGradient>
<linearGradient id="linear4" gradientUnits="userSpaceOnUse" x1="306.916656" y1="127.666656" x2="306.916687" y2="-105.166603" gradientTransform="matrix(0.093759,0,0,0.093759,-16.868802,20.158168)">
<stop offset="0" style="stop-color:rgb(14.901961%,65.098041%,60.392159%);stop-opacity:1;"/>
<stop offset="1" style="stop-color:rgb(30.19608%,71.372551%,67.450982%);stop-opacity:1;"/>
</linearGradient>
<linearGradient id="linear5" gradientUnits="userSpaceOnUse" x1="306.916656" y1="127.666656" x2="306.916718" y2="-105.166656" gradientTransform="matrix(0.093759,0,0,0.093759,-8.930543,20.158175)">
<stop offset="0" style="stop-color:rgb(100%,65.490198%,14.901961%);stop-opacity:1;"/>
<stop offset="1" style="stop-color:rgb(100%,71.764708%,30.19608%);stop-opacity:1;"/>
</linearGradient>
</defs>
<g id="surface1">
<path style=" stroke:none;fill-rule:nonzero;fill:url(#linear0);" d="M 7.691406 42.050781 L 40.1875 42.050781 L 40.1875 44.035156 L 7.691406 44.035156 Z M 7.691406 42.050781 "/>
<path style=" stroke:none;fill-rule:nonzero;fill:url(#radial0);" d="M 40.1875 42.050781 L 44.15625 42.050781 L 44.15625 40.066406 L 40.1875 40.066406 Z M 40.1875 42.050781 "/>
<path style=" stroke:none;fill-rule:nonzero;fill:url(#radial1);" d="M 7.691406 42.050781 L 3.722656 42.050781 L 3.722656 44.035156 L 7.691406 44.035156 Z M 7.691406 42.050781 "/>
<path style=" stroke:none;fill-rule:nonzero;fill:url(#radial2);" d="M 7.691406 42.050781 L 3.722656 42.050781 L 3.722656 40.066406 L 7.691406 40.066406 Z M 7.691406 42.050781 "/>
<path style=" stroke:none;fill-rule:nonzero;fill:url(#radial3);" d="M 40.1875 42.050781 L 44.15625 42.050781 L 44.15625 44.035156 L 40.1875 44.035156 Z M 40.1875 42.050781 "/>
<path style=" stroke:none;fill-rule:nonzero;fill:url(#linear1);" d="M 5.457031 4.46875 L 42.171875 4.46875 C 42.992188 4.46875 43.660156 5.132812 43.660156 5.957031 L 43.660156 40.6875 C 43.660156 41.507812 42.992188 42.175781 42.171875 42.175781 L 5.457031 42.175781 C 4.636719 42.175781 3.96875 41.507812 3.96875 40.6875 L 3.96875 5.957031 C 3.96875 5.132812 4.636719 4.46875 5.457031 4.46875 Z M 5.457031 4.46875 "/>
<path style=" stroke:none;fill-rule:nonzero;fill:rgb(0%,0%,0%);fill-opacity:0.235294;" d="M 5.457031 42.175781 C 4.632812 42.175781 3.96875 41.511719 3.96875 40.6875 L 3.96875 40.066406 C 3.96875 40.890625 4.632812 41.554688 5.457031 41.554688 L 42.171875 41.554688 C 42.996094 41.554688 43.660156 40.890625 43.660156 40.066406 L 43.660156 40.6875 C 43.660156 41.511719 42.996094 42.175781 42.171875 42.175781 Z M 5.457031 42.175781 "/>
<path style=" stroke:none;fill-rule:nonzero;fill:rgb(100%,100%,100%);fill-opacity:1;" d="M 5.457031 4.46875 C 4.632812 4.46875 3.96875 5.132812 3.96875 5.957031 L 3.96875 6.578125 C 3.96875 5.753906 4.632812 5.089844 5.457031 5.089844 L 42.171875 5.089844 C 42.996094 5.089844 43.660156 5.753906 43.660156 6.578125 L 43.660156 5.957031 C 43.660156 5.132812 42.996094 4.46875 42.171875 4.46875 Z M 5.457031 4.46875 "/>
<path style=" stroke:none;fill-rule:nonzero;fill:rgb(12.941177%,12.941177%,12.941177%);fill-opacity:1;" d="M 5.457031 4.203125 C 4.558594 4.203125 3.828125 4.933594 3.828125 5.832031 L 3.828125 40.5625 C 3.828125 41.460938 4.558594 42.191406 5.457031 42.191406 L 42.171875 42.191406 C 43.070312 42.191406 43.800781 41.460938 43.800781 40.5625 L 43.800781 5.832031 C 43.800781 4.933594 43.070312 4.203125 42.171875 4.203125 Z M 5.457031 4.484375 L 42.171875 4.484375 C 42.921875 4.484375 43.519531 5.082031 43.519531 5.832031 L 43.519531 40.5625 C 43.519531 41.3125 42.921875 41.910156 42.171875 41.910156 L 5.457031 41.910156 C 4.707031 41.910156 4.109375 41.3125 4.109375 40.5625 L 4.109375 5.832031 C 4.109375 5.082031 4.707031 4.484375 5.457031 4.484375 Z M 5.457031 4.484375 "/>
<path style=" stroke:none;fill-rule:nonzero;fill:url(#linear2);" d="M 25.800781 26.175781 L 29.769531 26.175781 C 30.316406 26.175781 30.761719 26.617188 30.761719 27.167969 L 30.761719 31.136719 C 30.761719 31.683594 30.316406 32.128906 29.769531 32.128906 L 25.800781 32.128906 C 25.25 32.128906 24.808594 31.683594 24.808594 31.136719 L 24.808594 27.167969 C 24.808594 26.617188 25.25 26.175781 25.800781 26.175781 Z M 25.800781 26.175781 "/>
<path style=" stroke:none;fill-rule:nonzero;fill:url(#linear3);" d="M 33.738281 13.273438 L 37.707031 13.273438 C 38.253906 13.273438 38.699219 13.71875 38.699219 14.265625 L 38.699219 31.136719 C 38.699219 31.683594 38.253906 32.128906 37.707031 32.128906 L 33.738281 32.128906 C 33.191406 32.128906 32.746094 31.683594 32.746094 31.136719 L 32.746094 14.265625 C 32.746094 13.71875 33.191406 13.273438 33.738281 13.273438 Z M 33.738281 13.273438 "/>
<path style=" stroke:none;fill-rule:nonzero;fill:url(#linear4);" d="M 9.921875 10.296875 L 13.890625 10.296875 C 14.441406 10.296875 14.882812 10.742188 14.882812 11.289062 L 14.882812 31.136719 C 14.882812 31.683594 14.441406 32.128906 13.890625 32.128906 L 9.921875 32.128906 C 9.375 32.128906 8.929688 31.683594 8.929688 31.136719 L 8.929688 11.289062 C 8.929688 10.742188 9.375 10.296875 9.921875 10.296875 Z M 9.921875 10.296875 "/>
<path style=" stroke:none;fill-rule:nonzero;fill:url(#linear5);" d="M 17.859375 20.21875 L 21.832031 20.21875 C 22.378906 20.21875 22.824219 20.664062 22.824219 21.214844 L 22.824219 31.136719 C 22.824219 31.683594 22.378906 32.128906 21.832031 32.128906 L 17.859375 32.128906 C 17.3125 32.128906 16.867188 31.683594 16.867188 31.136719 L 16.867188 21.214844 C 16.867188 20.664062 17.3125 20.21875 17.859375 20.21875 Z M 17.859375 20.21875 "/>
<path style=" stroke:none;fill-rule:nonzero;fill:rgb(100%,100%,100%);fill-opacity:0.392157;" d="M 9.921875 10.296875 C 9.375 10.296875 8.929688 10.742188 8.929688 11.289062 L 8.929688 11.785156 C 8.929688 11.238281 9.375 10.792969 9.921875 10.792969 L 13.890625 10.792969 C 14.441406 10.792969 14.882812 11.238281 14.882812 11.785156 L 14.882812 11.289062 C 14.882812 10.742188 14.441406 10.296875 13.890625 10.296875 Z M 33.738281 13.273438 C 33.1875 13.273438 32.746094 13.71875 32.746094 14.265625 L 32.746094 14.761719 C 32.746094 14.214844 33.1875 13.769531 33.738281 13.769531 L 37.707031 13.769531 C 38.257812 13.769531 38.699219 14.214844 38.699219 14.761719 L 38.699219 14.265625 C 38.699219 13.71875 38.257812 13.273438 37.707031 13.273438 Z M 17.859375 20.21875 C 17.3125 20.21875 16.867188 20.664062 16.867188 21.214844 L 16.867188 21.710938 C 16.867188 21.160156 17.3125 20.71875 17.859375 20.71875 L 21.832031 20.71875 C 22.378906 20.71875 22.824219 21.160156 22.824219 21.710938 L 22.824219 21.214844 C 22.824219 20.664062 22.378906 20.21875 21.832031 20.21875 Z M 25.800781 26.175781 C 25.25 26.175781 24.808594 26.617188 24.808594 27.167969 L 24.808594 27.664062 C 24.808594 27.113281 25.25 26.671875 25.800781 26.671875 L 29.769531 26.671875 C 30.316406 26.671875 30.761719 27.113281 30.761719 27.664062 L 30.761719 27.167969 C 30.761719 26.617188 30.316406 26.175781 29.769531 26.175781 Z M 25.800781 26.175781 "/>
<path style=" stroke:none;fill-rule:nonzero;fill:rgb(0%,0%,0%);fill-opacity:0.235294;" d="M 8.929688 31.136719 L 8.929688 32.128906 C 8.929688 32.679688 9.375 33.121094 9.921875 33.121094 L 13.890625 33.121094 C 14.441406 33.121094 14.882812 32.679688 14.882812 32.128906 L 14.882812 31.136719 C 14.882812 31.683594 14.441406 32.128906 13.890625 32.128906 L 9.921875 32.128906 C 9.375 32.128906 8.929688 31.683594 8.929688 31.136719 Z M 16.867188 31.136719 L 16.867188 32.128906 C 16.867188 32.679688 17.3125 33.121094 17.859375 33.121094 L 21.832031 33.121094 C 22.378906 33.121094 22.824219 32.679688 22.824219 32.128906 L 22.824219 31.136719 C 22.824219 31.683594 22.378906 32.128906 21.832031 32.128906 L 17.859375 32.128906 C 17.3125 32.128906 16.867188 31.683594 16.867188 31.136719 Z M 24.808594 31.136719 L 24.808594 32.128906 C 24.808594 32.679688 25.25 33.121094 25.800781 33.121094 L 29.769531 33.121094 C 30.316406 33.121094 30.761719 32.679688 30.761719 32.128906 L 30.761719 31.136719 C 30.761719 31.683594 30.316406 32.128906 29.769531 32.128906 L 25.800781 32.128906 C 25.25 32.128906 24.808594 31.683594 24.808594 31.136719 Z M 32.746094 31.136719 L 32.746094 32.128906 C 32.746094 32.679688 33.1875 33.121094 33.738281 33.121094 L 37.707031 33.121094 C 38.257812 33.121094 38.699219 32.679688 38.699219 32.128906 L 38.699219 31.136719 C 38.699219 31.683594 38.257812 32.128906 37.707031 32.128906 L 33.738281 32.128906 C 33.1875 32.128906 32.746094 31.683594 32.746094 31.136719 Z M 32.746094 31.136719 "/>
<path style="fill:none;stroke-width:3;stroke-linecap:butt;stroke-linejoin:round;stroke:rgb(12.941177%,12.941177%,12.941177%);stroke-opacity:1;stroke-miterlimit:4;" d="M 275.182055 64.181673 L 317.511346 64.181673 C 323.344122 64.181673 328.093669 68.889557 328.093669 74.763996 L 328.093669 117.093287 C 328.093669 122.926063 323.344122 127.675609 317.511346 127.675609 L 275.182055 127.675609 C 269.307616 127.675609 264.599732 122.926063 264.599732 117.093287 L 264.599732 74.763996 C 264.599732 68.889557 269.307616 64.181673 275.182055 64.181673 Z M 275.182055 64.181673 " transform="matrix(0.093759,0,0,0.093759,0,20.158175)"/>
<path style="fill:none;stroke-width:3;stroke-linecap:butt;stroke-linejoin:round;stroke:rgb(12.941177%,12.941177%,12.941177%);stroke-opacity:1;stroke-miterlimit:4;" d="M 359.840637 -73.430186 L 402.169928 -73.430186 C 408.002704 -73.430186 412.752251 -68.680639 412.752251 -62.847863 L 412.752251 117.093287 C 412.752251 122.926063 408.002704 127.675609 402.169928 127.675609 L 359.840637 127.675609 C 354.007861 127.675609 349.258314 122.926063 349.258314 117.093287 L 349.258314 -62.847863 C 349.258314 -68.680639 354.007861 -73.430186 359.840637 -73.430186 Z M 359.840637 -73.430186 " transform="matrix(0.093759,0,0,0.093759,0,20.158175)"/>
<path style="fill:none;stroke-width:3;stroke-linecap:butt;stroke-linejoin:round;stroke:rgb(12.941177%,12.941177%,12.941177%);stroke-opacity:1;stroke-miterlimit:4;" d="M 105.823228 -105.177154 L 148.152519 -105.177154 C 154.026958 -105.177154 158.734842 -100.427608 158.734842 -94.594831 L 158.734842 117.093287 C 158.734842 122.926063 154.026958 127.675609 148.152519 127.675609 L 105.823228 127.675609 C 99.990451 127.675609 95.240905 122.926063 95.240905 117.093287 L 95.240905 -94.594831 C 95.240905 -100.427608 99.990451 -105.177154 105.823228 -105.177154 Z M 105.823228 -105.177154 " transform="matrix(0.093759,0,0,0.093759,0,20.158175)"/>
<path style="fill:none;stroke-width:3;stroke-linecap:butt;stroke-linejoin:round;stroke:rgb(12.941177%,12.941177%,12.941177%);stroke-opacity:1;stroke-miterlimit:4;" d="M 190.48181 0.646073 L 232.852764 0.646073 C 238.68554 0.646073 243.435086 5.39562 243.435086 11.270059 L 243.435086 117.093287 C 243.435086 122.926063 238.68554 127.675609 232.852764 127.675609 L 190.48181 127.675609 C 184.649034 127.675609 179.899487 122.926063 179.899487 117.093287 L 179.899487 11.270059 C 179.899487 5.39562 184.649034 0.646073 190.48181 0.646073 Z M 190.48181 0.646073 " transform="matrix(0.093759,0,0,0.093759,0,20.158175)"/>
</g>
</svg>
